X: 1
P: The Bonny Lass of Fisherrow
C: Athole Collection, arr. T. Traub 3-16-1997
L: 1/8
M: 4/4
R: Reel
K: C
|: "C"GEcG "F"AcGE|"C"CEGE "G"D/D/D DA|"C"GEGc "F"AFAc|"G"BdGB "C"c/c/c c :|
g|"C"ecgc egca|"C"gcec "G"Bddf|"C"ecgc "F"egca|"G"gede "C"c/c/c cg|
"C"ecgc egca|"Am"gcec "G"Bddf|"C"ecGc "F"Acfa|"G"gede "C"c/c/c c |]
